X: 10042
M: C|
L: 1/8
K: A
f !segno!|:\
{B}e2 Ac/d/ eAce | dE .c.d/.e/ dB=GB :|\
|:\
[1 cA cd/e/ TcATcA | BE cd/e/ dB=GB :|\
[2 TcA cd/e/ TcA cd/e/ | BE cd/e/ dB=GB !segno!|]


